X: 18591
T: I Rowed Up In A Dory
R: reel
M: 4/4
K: Gmajor
GA|:BGGF EDB,C|DEDB, D2GA|BGGF EDFG|ABAB A2GA|
BGGF EDB,C|DEDB, D2GA|BdBd cAFA|G2G2 G2GA:|
|:Bdde dBGA|BGBG B2GA|BGGF EDFG|ABAB A2GA|
BGGF EDB,C|DEDB, D2GA|BdBd cAFA|G2G2 G2GA:|

